;FLAVOR:Marlin
;TIME:1689
;Filament used: 0.270053m
;Layer height: 0.12
;MINX:98.02
;MINY:99.7
;MINZ:0.12
;MAXX:120.325
;MAXY:120.3
;MAXZ:27
;Generated with Cura_SteamEngine 5.2.1
M82 ;absolute extrusion mode
; Ender 3 Custom Start G-code
G92 E0 ; Reset Extruder
G28 ; Home all axes
M104 S175 ; Start heating up the nozzle most of the way
M190 S60 ; Start heating the bed, wait until target temperature reached
M109 S200 ; Finish heating the nozzle
G1 Z2.0 F3000 ; Move Z Axis up little to prevent scratching of Heat Bed
G1 X0.1 Y20 Z0.3 F5000.0 ; Move to start position
G1 X0.1 Y200.0 Z0.3 F1500.0 E15 ; Draw the first line
G1 X0.4 Y200.0 Z0.3 F5000.0 ; Move to side a little
G1 X0.4 Y20 Z0.3 F1500.0 E30 ; Draw the second line
G92 E0 ; Reset Extruder
G1 Z2.0 F3000 ; Move Z Axis up little to prevent scratching of Heat Bed
G1 X5 Y20 Z0.3 F5000.0 ; Move over to prevent blob squish
G92 E0
G92 E0
G1 F1500 E-6.5
;LAYER_COUNT:225
;LAYER:0
M107
G0 F6000 X100.443 Y101.849 Z0.12
;TYPE:SKIRT
G1 F1500 E0
G1 F1200 X101.042 Y101.334 E0.01576
G1 X101.69 Y100.883 E0.03152
G1 X102.381 Y100.499 E0.0473
G1 X103.106 Y100.187 E0.06305
G1 X103.859 Y99.95 E0.0788
G1 X104.633 Y99.791 E0.09457
G1 X105.418 Y99.71 E0.11032
G1 X105.82 Y99.7 E0.11834
G1 X112.525 Y99.7 E0.25215
G1 X113.314 Y99.74 E0.26791
G1 X114.094 Y99.859 E0.28366
G1 X114.859 Y100.057 E0.29943
G1 X115.599 Y100.331 E0.31518
G1 X116.308 Y100.679 E0.33094
G1 X116.979 Y101.097 E0.34671
G1 X117.603 Y101.58 E0.36246
G1 X118.176 Y102.123 E0.37821
G1 X118.691 Y102.722 E0.39398
G1 X119.142 Y103.37 E0.40973
G1 X119.526 Y104.061 E0.42551
G1 X119.838 Y104.786 E0.44126
G1 X120.075 Y105.539 E0.45701
G1 X120.234 Y106.313 E0.47278
G1 X120.315 Y107.098 E0.48853
G1 X120.325 Y107.5 E0.49656
G1 X120.325 Y112.5 E0.59634
G1 X120.285 Y113.289 E0.6121
G1 X120.166 Y114.069 E0.62785
G1 X119.968 Y114.834 E0.64362
G1 X119.694 Y115.574 E0.65937
G1 X119.346 Y116.283 E0.67513
G1 X118.928 Y116.954 E0.6909
G1 X118.445 Y117.578 E0.70665
G1 X117.902 Y118.151 E0.7224
G1 X117.303 Y118.666 E0.73817
G1 X116.655 Y119.117 E0.75392
G1 X115.964 Y119.501 E0.7697
G1 X115.239 Y119.813 E0.78545
G1 X114.486 Y120.05 E0.8012
G1 X113.712 Y120.209 E0.81697
G1 X112.927 Y120.29 E0.83272
G1 X112.525 Y120.3 E0.84075
G1 X105.82 Y120.3 E0.97455
G1 X105.031 Y120.26 E0.99032
G1 X104.251 Y120.141 E1.00606
G1 X103.486 Y119.943 E1.02183
G1 X102.746 Y119.669 E1.03758
G1 X102.037 Y119.321 E1.05334
G1 X101.366 Y118.903 E1.06912
G1 X100.742 Y118.42 E1.08486
G1 X100.169 Y117.877 E1.10062
G1 X99.654 Y117.278 E1.11638
G1 X99.203 Y116.63 E1.13214
G1 X98.819 Y115.939 E1.14791
G1 X98.507 Y115.214 E1.16366
G1 X98.27 Y114.461 E1.17942
G1 X98.111 Y113.687 E1.19519
G1 X98.03 Y112.902 E1.21094
G1 X98.02 Y112.5 E1.21896
G1 X98.02 Y107.5 E1.31874
G1 X98.06 Y106.711 E1.33451
G1 X98.179 Y105.931 E1.35025
G1 X98.377 Y105.166 E1.36602
G1 X98.651 Y104.426 E1.38177
G1 X98.999 Y103.717 E1.39753
G1 X99.417 Y103.046 E1.41331
G1 X99.9 Y102.422 E1.42905
G1 X100.443 Y101.849 E1.44481
G0 F6000 X100.836 Y102.03
G1 F1200 X101.431 Y101.542 E1.46016
G1 X102.073 Y101.119 E1.47551
G1 X102.756 Y100.764 E1.49087
G1 X103.471 Y100.483 E1.5062
G1 X104.213 Y100.277 E1.52157
G1 X104.971 Y100.149 E1.53691
G1 X105.82 Y100.1 E1.55388
G1 X112.525 Y100.1 E1.68768
G1 X113.293 Y100.14 E1.70303
G1 X114.053 Y100.259 E1.71838
G1 X114.796 Y100.457 E1.73373
G1 X115.515 Y100.731 E1.74908
G1 X116.201 Y101.078 E1.76442
G1 X116.848 Y101.494 E1.77977
G1 X117.448 Y101.975 E1.79512
G1 X117.995 Y102.516 E1.81047
G1 X118.483 Y103.111 E1.82583
G1 X118.906 Y103.753 E1.84117
G1 X119.261 Y104.436 E1.85653
G1 X119.542 Y105.151 E1.87186
G1 X119.748 Y105.893 E1.88723
G1 X119.876 Y106.651 E1.90257
G1 X119.925 Y107.5 E1.91954
G1 X119.925 Y112.5 E2.01932
G1 X119.885 Y113.268 E2.03467
G1 X119.766 Y114.028 E2.05002
G1 X119.568 Y114.771 E2.06537
G1 X119.294 Y115.49 E2.08072
G1 X118.947 Y116.176 E2.09606
G1 X118.531 Y116.823 E2.11141
G1 X118.05 Y117.423 E2.12676
G1 X117.509 Y117.97 E2.14211
G1 X116.914 Y118.458 E2.15747
G1 X116.272 Y118.881 E2.17281
G1 X115.589 Y119.236 E2.18817
G1 X114.874 Y119.517 E2.20351
G1 X114.132 Y119.723 E2.21887
G1 X113.374 Y119.851 E2.23421
G1 X112.525 Y119.9 E2.25118
G1 X105.82 Y119.9 E2.38499
G1 X105.052 Y119.86 E2.40034
G1 X104.292 Y119.741 E2.41569
G1 X103.549 Y119.543 E2.43103
G1 X102.83 Y119.269 E2.44639
G1 X102.144 Y118.922 E2.46173
G1 X101.497 Y118.506 E2.47708
G1 X100.897 Y118.025 E2.49243
G1 X100.35 Y117.484 E2.50778
G1 X99.862 Y116.889 E2.52314
G1 X99.439 Y116.247 E2.53848
G1 X99.084 Y115.564 E2.55384
G1 X98.803 Y114.849 E2.56917
G1 X98.597 Y114.107 E2.58454
G1 X98.469 Y113.349 E2.59988
G1 X98.42 Y112.5 E2.61685
G1 X98.42 Y107.5 E2.71663
G1 X98.46 Y106.732 E2.73198
G1 X98.579 Y105.972 E2.74733
G1 X98.777 Y105.229 E2.76267
G1 X99.051 Y104.51 E2.77803
G1 X99.398 Y103.824 E2.79337
G1 X99.814 Y103.177 E2.80872
G1 X100.295 Y102.577 E2.82407
G1 X100.836 Y102.03 E2.83942
G0 F6000 X101.228 Y102.216
G1 F1200 X101.818 Y101.757 E2.85434
G1 X102.454 Y101.362 E2.86928
G1 X103.128 Y101.038 E2.8842
G1 X103.833 Y100.788 E2.89913
G1 X104.561 Y100.614 E2.91407
G1 X105.303 Y100.519 E2.92899
G1 X105.82 Y100.5 E2.93932
G1 X112.525 Y100.5 E3.07312
G1 X113.272 Y100.54 E3.08805
G1 X114.01 Y100.659 E3.10297
G1 X114.732 Y100.857 E3.11791
G1 X115.428 Y101.13 E3.13283
G1 X116.091 Y101.477 E3.14776
G1 X116.714 Y101.892 E3.1627
G1 X117.288 Y102.371 E3.17762
G1 X117.809 Y102.908 E3.19255
G1 X118.268 Y103.498 E3.20747
G1 X118.663 Y104.134 E3.22241
G1 X118.987 Y104.808 E3.23734
G1 X119.237 Y105.513 E3.25226
G1 X119.411 Y106.241 E3.2672
G1 X119.506 Y106.983 E3.28213
G1 X119.525 Y107.5 E3.29245
G1 X119.525 Y112.5 E3.39223
G1 X119.485 Y113.247 E3.40716
G1 X119.366 Y113.985 E3.42208
G1 X119.168 Y114.707 E3.43702
G1 X118.895 Y115.403 E3.45194
G1 X118.548 Y116.066 E3.46687
G1 X118.133 Y116.689 E3.48181
G1 X117.654 Y117.263 E3.49673
G1 X117.117 Y117.784 E3.51166
G1 X116.527 Y118.243 E3.52658
G1 X115.891 Y118.638 E3.54152
G1 X115.217 Y118.962 E3.55644
G1 X114.512 Y119.212 E3.57137
G1 X113.784 Y119.386 E3.58631
G1 X113.042 Y119.481 E3.60124
G1 X112.525 Y119.5 E3.61156
G1 X105.82 Y119.5 E3.74537
G1 X105.073 Y119.46 E3.7603
G1 X104.335 Y119.341 E3.77521
G1 X103.613 Y119.143 E3.79015
G1 X102.917 Y118.87 E3.80507
G1 X102.254 Y118.523 E3.82001
G1 X101.631 Y118.108 E3.83494
G1 X101.057 Y117.629 E3.84986
G1 X100.536 Y117.092 E3.8648
G1 X100.077 Y116.502 E3.87971
G1 X99.682 Y115.866 E3.89465
G1 X99.358 Y115.192 E3.90958
G1 X99.108 Y114.487 E3.9245
G1 X98.934 Y113.759 E3.93944
G1 X98.839 Y113.017 E3.95437
G1 X98.82 Y112.5 E3.96469
G1 X98.82 Y107.5 E4.06447
G1 X98.86 Y106.753 E4.0794
G1 X98.979 Y106.015 E4.09432
G1 X99.177 Y105.293 E4.10926
G1 X99.45 Y104.597 E4.12418
G1 X99.797 Y103.934 E4.13911
G1 X100.212 Y103.311 E4.15405
G1 X100.691 Y102.737 E4.16897
G1 X101.228 Y102.216 E4.1839
G0 F6000 X101.619 Y102.409
G1 F1200 X102.204 Y101.979 E4.19839
G1 X102.833 Y101.615 E4.2129
G1 X103.498 Y101.322 E4.2274
G1 X104.191 Y101.104 E4.24189
G1 X104.903 Y100.964 E4.25638
G1 X105.82 Y100.9 E4.27472
G1 X112.525 Y100.9 E4.40853
G1 X113.25 Y100.94 E4.42302
G1 X113.967 Y101.059 E4.43752
G1 X114.666 Y101.257 E4.45202
G1 X115.339 Y101.53 E4.46651
G1 X115.978 Y101.875 E4.481
G1 X116.575 Y102.289 E4.4955
G1 X117.123 Y102.765 E4.50999
G1 X117.616 Y103.299 E4.52449
G1 X118.046 Y103.884 E4.53898
G1 X118.41 Y104.513 E4.55348
G1 X118.703 Y105.178 E4.56798
G1 X118.921 Y105.871 E4.58248
G1 X119.061 Y106.583 E4.59696
G1 X119.125 Y107.5 E4.61531
G1 X119.125 Y112.5 E4.71509
G1 X119.085 Y113.225 E4.72958
G1 X118.966 Y113.942 E4.74408
G1 X118.768 Y114.641 E4.75858
G1 X118.495 Y115.314 E4.77307
G1 X118.15 Y115.953 E4.78756
G1 X117.736 Y116.55 E4.80206
G1 X117.26 Y117.098 E4.81655
G1 X116.726 Y117.591 E4.83105
G1 X116.141 Y118.021 E4.84554
G1 X115.512 Y118.385 E4.86004
G1 X114.847 Y118.678 E4.87454
G1 X114.154 Y118.896 E4.88904
G1 X113.442 Y119.036 E4.90352
G1 X112.525 Y119.1 E4.92187
G1 X105.82 Y119.1 E5.05567
G1 X105.095 Y119.06 E5.07016
G1 X104.378 Y118.941 E5.08467
G1 X103.679 Y118.743 E5.09917
G1 X103.006 Y118.47 E5.11366
G1 X102.367 Y118.125 E5.12815
G1 X101.77 Y117.711 E5.14265
G1 X101.222 Y117.235 E5.15713
G1 X100.729 Y116.701 E5.17164
G1 X100.299 Y116.116 E5.18613
G1 X99.935 Y115.487 E5.20063
G1 X99.642 Y114.822 E5.21513
G1 X99.424 Y114.129 E5.22963
G1 X99.284 Y113.417 E5.24411
G1 X99.22 Y112.5 E5.26245
G1 X99.22 Y107.5 E5.36223
G1 X99.26 Y106.775 E5.37672
G1 X99.379 Y106.058 E5.39123
G1 X99.577 Y105.359 E5.40573
G1 X99.85 Y104.686 E5.42022
G1 X100.195 Y104.047 E5.43471
G1 X100.609 Y103.45 E5.44921
G1 X101.085 Y102.902 E5.4637
G1 X101.619 Y102.409 E5.4782
G0 F6000 X102.009 Y102.609
G1 F1200 X102.588 Y102.209 E5.49224
G1 X103.209 Y101.877 E5.5063
G1 X103.863 Y101.617 E5.52034
G1 X104.543 Y101.433 E5.5344
G1 X105.239 Y101.327 E5.54845
G1 X105.82 Y101.3 E5.56006
G1 X112.525 Y101.3 E5.69386
G1 X113.228 Y101.34 E5.70791
G1 X113.922 Y101.459 E5.72196
G1 X114.597 Y101.657 E5.736
G1 X115.246 Y101.929 E5.75005
G1 X115.86 Y102.274 E5.7641
G1 X116.431 Y102.685 E5.77814
G1 X116.952 Y103.159 E5.7922
G1 X117.416 Y103.689 E5.80625
G1 X117.816 Y104.268 E5.8203
G1 X118.148 Y104.889 E5.83435
G1 X118.408 Y105.543 E5.84839
G1 X118.592 Y106.223 E5.86245
G1 X118.698 Y106.919 E5.8765
G1 X118.725 Y107.5 E5.88811
G1 X118.725 Y112.5 E5.98789
G1 X118.685 Y113.203 E6.00194
G1 X118.566 Y113.897 E6.01599
G1 X118.368 Y114.572 E6.03003
G1 X118.096 Y115.221 E6.04407
G1 X117.751 Y115.835 E6.05813
G1 X117.34 Y116.406 E6.07217
G1 X116.866 Y116.927 E6.08622
G1 X116.336 Y117.391 E6.10028
G1 X115.757 Y117.791 E6.11433
G1 X115.136 Y118.123 E6.12838
G1 X114.482 Y118.383 E6.14242
G1 X113.802 Y118.567 E6.15648
G1 X113.106 Y118.673 E6.17053
G1 X112.525 Y118.7 E6.18214
G1 X105.82 Y118.7 E6.31594
G1 X105.117 Y118.66 E6.33
G1 X104.423 Y118.541 E6.34405
G1 X103.748 Y118.343 E6.35809
G1 X103.099 Y118.071 E6.37213
G1 X102.485 Y117.726 E6.38618
G1 X101.914 Y117.315 E6.40022
G1 X101.393 Y116.841 E6.41428
G1 X100.929 Y116.311 E6.42834
G1 X100.529 Y115.732 E6.44238
G1 X100.197 Y115.111 E6.45643
G1 X99.937 Y114.457 E6.47048
G1 X99.753 Y113.777 E6.48454
G1 X99.647 Y113.081 E6.49859
G1 X99.62 Y112.5 E6.51019
G1 X99.62 Y107.5 E6.60997
G1 X99.66 Y106.797 E6.62402
G1 X99.779 Y106.103 E6.63808
G1 X99.977 Y105.428 E6.65211
G1 X100.249 Y104.779 E6.66616
G1 X100.594 Y104.165 E6.68021
G1 X101.005 Y103.594 E6.69425
G1 X101.479 Y103.073 E6.70831
G1 X102.009 Y102.609 E6.72236
G0 F6000 X102.398 Y102.817
G1 F1200 X102.97 Y102.448 E6.73595
G1 X103.582 Y102.149 E6.74954
G1 X104.224 Y101.924 E6.76312
G1 X104.889 Y101.775 E6.77672
G1 X105.82 Y101.7 E6.79536
G1 X112.525 Y101.7 E6.92916
G1 X113.205 Y101.74 E6.94276
G1 X113.875 Y101.859 E6.95634
G1 X114.527 Y102.056 E6.96993
G1 X115.151 Y102.328 E6.98351
G1 X115.739 Y102.672 E6.99711
G1 X116.283 Y103.082 E7.0107
G1 X116.774 Y103.553 E7.02428
G1 X117.208 Y104.078 E7.03787
G1 X117.577 Y104.65 E7.05146
G1 X117.876 Y105.262 E7.06505
G1 X118.101 Y105.904 E7.07862
G1 X118.25 Y106.569 E7.09222
G1 X118.325 Y107.5 E7.11086
G1 X118.325 Y112.5 E7.21064
G1 X118.285 Y113.18 E7.22424
G1 X118.166 Y113.85 E7.23782
G1 X117.969 Y114.502 E7.25141
G1 X117.697 Y115.126 E7.26499
G1 X117.353 Y115.714 E7.27859
G1 X116.943 Y116.258 E7.29218
G1 X116.472 Y116.749 E7.30576
G1 X115.947 Y117.183 E7.31935
G1 X115.375 Y117.552 E7.33294
G1 X114.763 Y117.851 E7.34653
G1 X114.121 Y118.076 E7.36011
G1 X113.456 Y118.225 E7.37371
G1 X112.525 Y118.3 E7.39235
G1 X105.82 Y118.3 E7.52615
G1 X105.14 Y118.26 E7.53975
G1 X104.47 Y118.141 E7.55332
G1 X103.818 Y117.944 E7.56692
G1 X103.194 Y117.672 E7.5805
G1 X102.606 Y117.328 E7.5941
G1 X102.062 Y116.918 E7.60769
G1 X101.571 Y116.447 E7.62127
G1 X101.137 Y115.922 E7.63486
G1 X100.768 Y115.35 E7.64845
G1 X100.469 Y114.738 E7.66204
G1 X100.244 Y114.096 E7.67561
G1 X100.095 Y113.431 E7.68921
G1 X100.02 Y112.5 E7.70785
G1 X100.02 Y107.5 E7.80763
G1 X100.06 Y106.82 E7.82123
G1 X100.179 Y106.15 E7.83481
G1 X100.376 Y105.498 E7.8484
G1 X100.648 Y104.874 E7.86198
G1 X100.992 Y104.286 E7.87558
G1 X101.402 Y103.742 E7.88917
G1 X101.873 Y103.251 E7.90275
G1 X102.398 Y102.817 E7.91634
G0 F6000 X102.785 Y103.034
G1 F1200 X103.349 Y102.698 E7.92944
G1 X103.951 Y102.434 E7.94256
G1 X104.58 Y102.244 E7.95568
G1 X105.227 Y102.133 E7.96878
G1 X105.82 Y102.1 E7.98063
G1 X112.525 Y102.1 E8.11443
G1 X113.181 Y102.14 E8.12755
G1 X113.827 Y102.259 E8.14066
G1 X114.454 Y102.456 E8.15377
G1 X115.052 Y102.728 E8.16688
G1 X115.613 Y103.07 E8.17999
G1 X116.128 Y103.478 E8.19311
G1 X116.59 Y103.945 E8.20622
G1 X116.991 Y104.465 E8.21932
G1 X117.327 Y105.029 E8.23242
G1 X117.591 Y105.631 E8.24554
G1 X117.781 Y106.26 E8.25865
G1 X117.892 Y106.907 E8.27175
G1 X117.925 Y107.5 E8.2836
G1 X117.925 Y112.5 E8.38338
G1 X117.885 Y113.156 E8.3965
G1 X117.766 Y113.802 E8.40961
G1 X117.569 Y114.429 E8.42272
G1 X117.297 Y115.027 E8.43583
G1 X116.955 Y115.588 E8.44895
G1 X116.547 Y116.103 E8.46206
G1 X116.08 Y116.565 E8.47517
G1 X115.56 Y116.966 E8.48827
G1 X114.996 Y117.302 E8.50137
G1 X114.394 Y117.566 E8.51449
G1 X113.765 Y117.756 E8.5276
G1 X113.118 Y117.867 E8.5407
G1 X112.525 Y117.9 E8.55256
G1 X105.82 Y117.9 E8.68636
G1 X105.164 Y117.86 E8.69948
G1 X104.518 Y117.741 E8.71259
G1 X103.891 Y117.544 E8.7257
G1 X103.293 Y117.272 E8.73881
G1 X102.732 Y116.93 E8.75192
G1 X102.217 Y116.522 E8.76503
G1 X101.755 Y116.055 E8.77814
G1 X101.354 Y115.535 E8.79125
G1 X101.018 Y114.971 E8.80435
G1 X100.754 Y114.369 E8.81747
G1 X100.564 Y113.74 E8.83058
G1 X100.453 Y113.093 E8.84368
G1 X100.42 Y112.5 E8.85553
G1 X100.42 Y107.5 E8.95531
G1 X100.46 Y106.844 E8.96843
G1 X100.579 Y106.198 E8.98154
G1 X100.776 Y105.571 E8.99465
G1 X101.048 Y104.973 E9.00776
G1 X101.39 Y104.412 E9.02087
G1 X101.798 Y103.897 E9.03399
G1 X102.265 Y103.435 E9.0471
G1 X102.785 Y103.034 E9.0602
G0 F6000 X103.17 Y103.26
G1 F1200 X103.726 Y102.96 E9.07281
G1 X104.315 Y102.732 E9.08541
G1 X104.929 Y102.58 E9.09803
G1 X105.82 Y102.5 E9.11589
G1 X112.525 Y102.5 E9.24969
G1 X113.156 Y102.54 E9.26231
G1 X113.777 Y102.659 E9.27493
G1 X114.377 Y102.856 E9.28753
G1 X114.949 Y103.127 E9.30016
G1 X115.481 Y103.467 E9.31276
G1 X115.966 Y103.873 E9.32538
G1 X116.396 Y104.336 E9.33799
G1 X116.765 Y104.85 E9.35062
G1 X117.065 Y105.406 E9.36323
G1 X117.293 Y105.995 E9.37583
G1 X117.445 Y106.609 E9.38846
G1 X117.525 Y107.5 E9.40631
G1 X117.525 Y112.5 E9.50609
G1 X117.485 Y113.131 E9.51871
G1 X117.366 Y113.752 E9.53132
G1 X117.169 Y114.352 E9.54393
G1 X116.898 Y114.924 E9.55656
G1 X116.558 Y115.456 E9.56916
G1 X116.152 Y115.941 E9.58178
G1 X115.689 Y116.371 E9.59439
G1 X115.175 Y116.74 E9.60702
G1 X114.619 Y117.04 E9.61962
G1 X114.03 Y117.268 E9.63223
G1 X113.416 Y117.42 E9.64485
G1 X112.525 Y117.5 E9.6627
G1 X105.82 Y117.5 E9.79651
G1 X105.189 Y117.46 E9.80913
G1 X104.568 Y117.341 E9.82174
G1 X103.968 Y117.144 E9.83435
G1 X103.396 Y116.873 E9.84698
G1 X102.864 Y116.533 E9.85958
G1 X102.379 Y116.127 E9.8722
G1 X101.949 Y115.664 E9.88481
G1 X101.58 Y115.15 E9.89744
G1 X101.28 Y114.594 E9.91004
G1 X101.052 Y114.005 E9.92265
G1 X100.9 Y113.391 E9.93527
G1 X100.82 Y112.5 E9.95312
G1 X100.82 Y107.5 E10.0529
G1 X100.86 Y106.869 E10.06552
G1 X100.979 Y106.248 E10.07814
G1 X101.176 Y105.648 E10.09074
G1 X101.447 Y105.076 E10.10337
G1 X101.787 Y104.544 E10.11597
G1 X102.193 Y104.059 E10.1286
G1 X102.656 Y103.629 E10.14121
G1 X103.17 Y103.26 E10.15383
G0 F6000 X103.552 Y103.498
G1 F1200 X104.098 Y103.234 E10.16594
G1 X104.674 Y103.045 E10.17803
G1 X105.27 Y102.933 E10.19014
G1 X105.82 Y102.9 E10.20113
G1 X112.525 Y102.9 E10.33494
G1 X113.13 Y102.94 E10.34704
G1 X113.724 Y103.059 E10.35913
G1 X114.298 Y103.255 E10.37123
G1 X114.841 Y103.526 E10.38334
G1 X115.344 Y103.865 E10.39545
G1 X115.797 Y104.267 E10.40753
G1 X116.194 Y104.725 E10.41963
G1 X116.527 Y105.232 E10.43173
G1 X116.791 Y105.778 E10.44384
G1 X116.98 Y106.354 E10.45593
G1 X117.092 Y106.95 E10.46803
G1 X117.125 Y107.5 E10.47903
G1 X117.125 Y112.5 E10.57881
G1 X117.085 Y113.105 E10.59091
G1 X116.966 Y113.699 E10.603
G1 X116.77 Y114.273 E10.6151
G1 X116.499 Y114.816 E10.62721
